assets/edit-icon.svg

<?xml version="1.0"?><svg xmlns="http://www.w3.org/2000/svg"  viewBox="0 0 24 24" width="24px" height="24px">    <path d="M 18.414062 2 C 18.158062 2 17.902031 2.0979687 17.707031 2.2929688 L 15.707031 4.2929688 L 14.292969 5.7070312 L 3 17 L 3 21 L 7 21 L 21.707031 6.2929688 C 22.098031 5.9019687 22.098031 5.2689063 21.707031 4.8789062 L 19.121094 2.2929688 C 18.926094 2.0979687 18.670063 2 18.414062 2 z M 18.414062 4.4140625 L 19.585938 5.5859375 L 18.292969 6.8789062 L 17.121094 5.7070312 L 18.414062 4.4140625 z M 15.707031 7.1210938 L 16.878906 8.2929688 L 6.171875 19 L 5 19 L 5 17.828125 L 15.707031 7.1210938 z"/></svg>

<svg xmlns="http://www.w3.org/2000/svg" xmlns:xlink="http://www.w3.org/1999/xlink" viewBox="0,0,256,256" width="24px" height="24px"><g fill="#ffffff" fill-rule="nonzero" stroke="none" stroke-width="1" stroke-linecap="butt" stroke-linejoin="miter" stroke-miterlimit="10" stroke-dasharray="" stroke-dashoffset="0" font-family="none" font-weight="none" font-size="none" text-anchor="none" style="mix-blend-mode: normal"><g transform="scale(10.66667,10.66667)"><path d="M18.41406,2c-0.256,0 -0.51203,0.09797 -0.70703,0.29297l-2,2l-1.41406,1.41406l-11.29297,11.29297v4h4l14.70703,-14.70703c0.391,-0.391 0.391,-1.02406 0,-1.41406l-2.58594,-2.58594c-0.195,-0.195 -0.45103,-0.29297 -0.70703,-0.29297zM18.41406,4.41406l1.17188,1.17188l-1.29297,1.29297l-1.17187,-1.17187zM15.70703,7.12109l1.17188,1.17188l-10.70703,10.70703h-1.17187v-1.17187z"></path></g></g></svg>
